build/img/1_year_badge.svg

<?xml version="1.0" encoding="UTF-8"?> <svg xmlns="http://www.w3.org/2000/svg" width="285" height="56" viewBox="0 0 285 56" fill="none"> <rect width="285" height="56" rx="8" fill="#5EA9FF" fill-opacity="0.2"></rect> <path d="M22.124 27.2461V23.9355H27.8955V18.208H31.3086V23.9355H37.0654V27.2461H31.3086V32.9736H27.8955V27.2461H22.124Z" fill="#5EA9FF"></path> <path d="M39.9658 16.8018L45.6055 15H48.1836V36.1523H44.5361V18.75L40.7422 19.8047L39.9658 16.8018Z" fill="#5EA9FF"></path> <path d="M62.3633 36.1523V20.3174H73.584V23.4375H65.9814V36.1523H62.3633Z" fill="#5EA9FF"></path> <path d="M75.5762 28.2568C75.5762 26.7627 75.9375 25.3857 76.6602 24.126C77.3926 22.8564 78.4082 21.8506 79.707 21.1084C81.0156 20.3564 82.4609 19.9805 84.043 19.9805C85.6348 19.9805 87.0752 20.3516 88.3643 21.0938C89.6533 21.8262 90.6592 22.8271 91.3818 24.0967C92.1045 25.3564 92.4658 26.7432 92.4658 28.2568C92.4658 29.3701 92.251 30.4346 91.8213 31.4502C91.3916 32.4561 90.8057 33.335 90.0635 34.0869C89.3213 34.8291 88.4229 35.4199 87.3682 35.8594C86.3135 36.2988 85.1855 36.5186 83.9844 36.5186C82.4023 36.5186 80.9668 36.1475 79.6777 35.4053C78.3887 34.6631 77.3828 33.6621 76.6602 32.4023C75.9375 31.1426 75.5762 29.7607 75.5762 28.2568ZM79.209 28.2568C79.209 29.6631 79.668 30.8691 80.5859 31.875C81.5039 32.8711 82.6562 33.3691 84.043 33.3691C85.4785 33.3691 86.6357 32.876 87.5146 31.8896C88.3936 30.9033 88.833 29.6924 88.833 28.2568C88.833 26.8408 88.374 25.6396 87.4561 24.6533C86.5479 23.6572 85.3906 23.1592 83.9844 23.1592C82.5586 23.1592 81.4062 23.6475 80.5273 24.624C79.6484 25.6006 79.209 26.8115 79.209 28.2568Z" fill="#5EA9FF"></path> <path d="M94.3408 33.0322H96.04C97.2217 30.6689 97.8125 27.0801 97.8125 22.2656V20.3174H110.088V33.0322H112.344L111.86 39.9609H108.828V36.1523H97.7246L97.373 39.9609H94.3408V33.0322ZM99.7607 33.0322H106.455V23.4375H101.24V25.5322C101.24 28.4521 100.747 30.9521 99.7607 33.0322Z" fill="#5EA9FF"></path> <path d="M124.355 36.1523V20.3174H135.576V23.4375H127.974V36.1523H124.355Z" fill="#5EA9FF"></path> <path d="M137.363 31.5381C137.363 29.8389 137.949 28.5498 139.121 27.6709C140.303 26.7822 141.855 26.3379 143.779 26.3379C145.332 26.3379 146.792 26.5576 148.159 26.9971V26.7041C148.159 25.6006 147.822 24.7607 147.148 24.1846C146.484 23.5986 145.522 23.3057 144.263 23.3057C142.837 23.3057 141.328 23.6377 139.736 24.3018L138.74 21.3867C139.717 20.9473 140.664 20.6201 141.582 20.4053C142.51 20.1807 143.574 20.0684 144.775 20.0684C147.08 20.0684 148.813 20.6494 149.976 21.8115C151.147 22.9639 151.733 24.6143 151.733 26.7627V36.1523H148.13V34.2041C146.851 35.7275 145.142 36.4893 143.003 36.4893C141.978 36.4893 141.045 36.3086 140.205 35.9473C139.365 35.5762 138.682 35.0098 138.154 34.248C137.627 33.4863 137.363 32.583 137.363 31.5381ZM140.967 31.4062C140.967 32.1289 141.255 32.7002 141.831 33.1201C142.407 33.54 143.14 33.75 144.028 33.75C145.239 33.75 146.24 33.4424 147.031 32.8271C147.822 32.2021 148.218 31.4014 148.218 30.4248V29.5166C147.163 29.0967 145.952 28.8867 144.585 28.8867C143.442 28.8867 142.554 29.1064 141.919 29.5459C141.284 29.9854 140.967 30.6055 140.967 31.4062Z" fill="#5EA9FF"></path> <path d="M156.055 40.957V20.3174H159.673V22.9541C161.079 20.9717 162.871 19.9805 165.049 19.9805C165.996 19.9805 166.909 20.166 167.788 20.5371C168.667 20.9082 169.453 21.4355 170.146 22.1191C170.84 22.8027 171.392 23.6768 171.802 24.7412C172.222 25.8057 172.432 26.9775 172.432 28.2568C172.432 29.5264 172.222 30.6885 171.802 31.7432C171.392 32.7979 170.84 33.667 170.146 34.3506C169.463 35.0342 168.682 35.5615 167.803 35.9326C166.924 36.3037 166.006 36.4893 165.049 36.4893C162.881 36.4893 161.089 35.5566 159.673 33.6914V40.957H156.055ZM159.585 28.2568C159.585 29.7412 160.039 30.957 160.947 31.9043C161.855 32.8516 162.944 33.3252 164.214 33.3252C165.493 33.3252 166.567 32.8613 167.437 31.9336C168.306 30.9961 168.74 29.751 168.74 28.1982C168.74 26.7041 168.301 25.4883 167.422 24.5508C166.543 23.6035 165.474 23.1299 164.214 23.1299C162.944 23.1299 161.855 23.6084 160.947 24.5654C160.039 25.5225 159.585 26.7529 159.585 28.2568Z" fill="#5EA9FF"></path> <path d="M175.068 31.5381C175.068 29.8389 175.654 28.5498 176.826 27.6709C178.008 26.7822 179.561 26.3379 181.484 26.3379C183.037 26.3379 184.497 26.5576 185.864 26.9971V26.7041C185.864 25.6006 185.527 24.7607 184.854 24.1846C184.189 23.5986 183.228 23.3057 181.968 23.3057C180.542 23.3057 179.033 23.6377 177.441 24.3018L176.445 21.3867C177.422 20.9473 178.369 20.6201 179.287 20.4053C180.215 20.1807 181.279 20.0684 182.48 20.0684C184.785 20.0684 186.519 20.6494 187.681 21.8115C188.853 22.9639 189.438 24.6143 189.438 26.7627V36.1523H185.835V34.2041C184.556 35.7275 182.847 36.4893 180.708 36.4893C179.683 36.4893 178.75 36.3086 177.91 35.9473C177.07 35.5762 176.387 35.0098 175.859 34.248C175.332 33.4863 175.068 32.583 175.068 31.5381ZM178.672 31.4062C178.672 32.1289 178.96 32.7002 179.536 33.1201C180.112 33.54 180.845 33.75 181.733 33.75C182.944 33.75 183.945 33.4424 184.736 32.8271C185.527 32.2021 185.923 31.4014 185.923 30.4248V29.5166C184.868 29.0967 183.657 28.8867 182.29 28.8867C181.147 28.8867 180.259 29.1064 179.624 29.5459C178.989 29.9854 178.672 30.6055 178.672 31.4062Z" fill="#5EA9FF"></path> <path d="M193.76 36.1523V20.3174H197.378V26.7334H204.38V20.3174H207.998V36.1523H204.38V29.7656H197.378V36.1523H193.76Z" fill="#5EA9FF"></path> <path d="M210.854 23.4375V20.3174H224.712V23.4375H219.614V36.1523H215.952V23.4375H210.854Z" fill="#5EA9FF"></path> <path d="M227.598 36.1523V20.3174H231.128V30.9375C233.862 27.0508 236.362 23.5107 238.628 20.3174H242.056V36.1523H238.54V25.5908L231.011 36.1523H227.598Z" fill="#5EA9FF"></path> <path d="M246.611 36.1523V20.3174H250.142V30.9375C252.876 27.0508 255.376 23.5107 257.642 20.3174H261.069V36.1523H257.554V25.5908L250.024 36.1523H246.611Z" fill="#5EA9FF"></path> </svg>

<svg xmlns="http://www.w3.org/2000/svg" width="285" height="56" viewBox="0 0 285 56" fill="none"><rect width="285" height="56" rx="8" fill="#5EA9FF" fill-opacity=".2"/><path d="M22.124 27.246v-3.31h5.771v-5.728h3.414v5.728h5.756v3.31H31.31v5.728h-3.414v-5.728h-5.771zm17.842-10.444L45.606 15h2.578v21.152h-3.648V18.75l-3.794 1.055-.776-3.003zm22.397 19.35V20.317h11.221v3.12h-7.603v12.715h-3.618zm13.213-7.895c0-1.494.362-2.871 1.084-4.131a8.071 8.071 0 013.047-3.018c1.309-.752 2.754-1.128 4.336-1.128 1.592 0 3.032.372 4.321 1.114a7.888 7.888 0 013.018 3.003c.722 1.26 1.084 2.646 1.084 4.16a8.113 8.113 0 01-.645 3.193 8.424 8.424 0 01-1.757 2.637c-.743.742-1.641 1.333-2.696 1.772a8.71 8.71 0 01-3.384.66c-1.582 0-3.017-.371-4.306-1.114a8.026 8.026 0 01-3.018-3.003c-.722-1.26-1.084-2.641-1.084-4.145zm3.633 0c0 1.406.459 2.612 1.377 3.618.918.996 2.07 1.494 3.457 1.494 1.435 0 2.593-.493 3.472-1.48.879-.986 1.318-2.197 1.318-3.632 0-1.416-.459-2.617-1.377-3.604-.908-.996-2.065-1.494-3.472-1.494-1.425 0-2.578.489-3.457 1.465-.879.977-1.318 2.188-1.318 3.633zm15.131 4.775h1.7c1.182-2.363 1.772-5.952 1.772-10.766v-1.949h12.276v12.715h2.256l-.484 6.929h-3.032v-3.809H97.725l-.352 3.809h-3.032v-6.929zm5.42 0h6.695v-9.594h-5.215v2.094c0 2.92-.493 5.42-1.48 7.5zm24.595 3.12V20.317h11.221v3.12h-7.602v12.715h-3.619zm13.008-4.614c0-1.7.586-2.988 1.758-3.867 1.182-.889 2.734-1.333 4.658-1.333 1.553 0 3.013.22 4.38.66v-.294c0-1.103-.337-1.943-1.011-2.52-.664-.585-1.626-.878-2.885-.878-1.426 0-2.935.332-4.527.996l-.996-2.915a15.63 15.63 0 012.842-.982c.928-.224 1.992-.337 3.193-.337 2.305 0 4.038.581 5.201 1.743 1.171 1.153 1.757 2.803 1.757 4.952v9.39h-3.603v-1.949c-1.279 1.523-2.988 2.285-5.127 2.285-1.025 0-1.958-.18-2.798-.542a4.824 4.824 0 01-2.051-1.699c-.527-.762-.791-1.665-.791-2.71zm3.604-.132c0 .723.288 1.294.864 1.714.576.42 1.309.63 2.197.63 1.211 0 2.212-.308 3.003-.923.791-.625 1.187-1.426 1.187-2.402v-.908c-1.055-.42-2.266-.63-3.633-.63-1.143 0-2.031.22-2.666.659-.635.44-.952 1.06-.952 1.86zm15.088 9.551v-20.64h3.618v2.637c1.406-1.982 3.198-2.974 5.376-2.974.947 0 1.86.186 2.739.557a7.47 7.47 0 012.358 1.582c.694.684 1.246 1.558 1.656 2.622.42 1.065.63 2.236.63 3.516 0 1.27-.21 2.431-.63 3.486-.41 1.055-.962 1.924-1.656 2.608a7.295 7.295 0 01-2.343 1.582 7.01 7.01 0 01-2.754.556c-2.168 0-3.96-.932-5.376-2.798v7.266h-3.618zm3.53-12.7c0 1.484.454 2.7 1.362 3.647.908.948 1.997 1.421 3.267 1.421 1.279 0 2.353-.464 3.223-1.391.869-.938 1.303-2.183 1.303-3.736 0-1.494-.439-2.71-1.318-3.647-.879-.947-1.948-1.421-3.208-1.421-1.27 0-2.359.478-3.267 1.435-.908.957-1.362 2.188-1.362 3.692zm15.483 3.281c0-1.7.586-2.988 1.758-3.867 1.182-.889 2.735-1.333 4.658-1.333 1.553 0 3.013.22 4.38.66v-.294c0-1.103-.337-1.943-1.01-2.52-.665-.585-1.626-.878-2.886-.878-1.426 0-2.935.332-4.527.996l-.996-2.915a15.63 15.63 0 012.842-.982c.928-.224 1.992-.337 3.193-.337 2.305 0 4.039.581 5.201 1.743 1.172 1.153 1.757 2.803 1.757 4.952v9.39h-3.603v-1.949c-1.279 1.523-2.988 2.285-5.127 2.285-1.025 0-1.958-.18-2.798-.542a4.824 4.824 0 01-2.051-1.699c-.527-.762-.791-1.665-.791-2.71zm3.604-.132c0 .723.288 1.294.864 1.714.576.42 1.309.63 2.197.63 1.211 0 2.212-.308 3.003-.923.791-.625 1.187-1.426 1.187-2.402v-.908c-1.055-.42-2.266-.63-3.633-.63-1.143 0-2.031.22-2.666.659-.635.44-.952 1.06-.952 1.86zm15.088 4.746V20.317h3.618v6.416h7.002v-6.416h3.618v15.835h-3.618v-6.386h-7.002v6.386h-3.618zm17.094-12.714v-3.12h13.858v3.12h-5.098v12.714h-3.662V23.437h-5.098zm16.744 12.714V20.317h3.53v10.62c2.734-3.886 5.234-7.426 7.5-10.62h3.428v15.835h-3.516V25.591l-7.529 10.561h-3.413zm19.013 0V20.317h3.531v10.62c2.734-3.886 5.234-7.426 7.5-10.62h3.427v15.835h-3.515V25.591l-7.53 10.561h-3.413z" fill="#5EA9FF"/></svg>
